**kern	**kern
*staff1	*staff1
*solos[solo1,solo1]
=1-	=1-	!!Intro
*clefG2	*clefG2
*k[]	*k[]
*F:	*F:
*M4/4	*M4/4
1r	.
=2	=2
1r	.
=3	=3
1r	.
=4	=4
1r	.
=5	=5	!!Head
*>head1
{4G/	1F:maj
8r	.
8c/	.
4.A/	.
8B-/	.
=6	=6
6c/	2G:min
6A/	.
6B-/	.
6d-/	2C:dom
4a/	.
12g/	.
=7	=7
8e/L	1F:dom
8g/	.
8f/	.
8c/J	.
8B-/L	.
8d/	.
8c/	.
8c/J	.
=8	=8
8r	2C:min
16A/LL	.
16B-/J	.
8c/	.
8d/J	.
8e-/L	2F:dom
8f/	.
8d/	.
8A/J	.
=9	=9
8c/L	1B-:dom
8F/	.
8G/	.
8A-/J}	.
4r	.
8r	.
{8F/	.
=10	=10
8G/L	1B-:dom
8F/	.
8B-/	.
8A/J	.
8c/L	.
8B-/	.
8e-/	.
8c/J}	.
=11	=11
4r	1F:maj
8r	.
{8c/	.
2c/	.
=12	=12
8r	1F:maj
4c/	.
8A/	.
8B-/L	.
8A/	.
8c/	.
8B-/J	.
=13	=13
8A/L	1G:min
8F/	.
8G/	.
8A/J	.
4c/}	.
8r	.
{16B-/LL	.
16c/JJ	.
=14	=14
8d-/L	1C:dom::9-
[8a/J	.
2a/]	.
4g/	.
=15	=15
8r	1F:maj
8E/L	.
8F/	.
8G/J	.
8A/L	.
8G/	.
8F/	.
8E/J	.
=16	=16
8r	1G:min
8E/L	.
8F/	.
8G/J	.
8A/L	2C:dom
8G/	.
8F/	.
8E/J	.
*>solo1
=17	=17	!!Chorus 1
[4F/	1F:dom
8F/]	.
32A/LLL	.
32c/	.
32d/	.
32f/JJJ	.
8d/L	.
8A/	.
8B-/	.
[8c/J	.
=18:|!	=18:|!
8c/L]	2G:min
8A/J	.
16B-/LL	.
16d/	.
16f/	.
16a/JJ	.
8a-/L	1C:dom
16e/L	.
16c/J	.
8B-/	.
8c/J}	.
=19	=19
{[4F/	1F:dom
8F/]	.
32A/LLL	.
32c/	.
32d/	.
32f/JJJ	.
4d/}	.
4r	.
=20	=20
8r	2C:min
{16c/LL	.
16e-/J	.
8g/	.
8b-/J	.
8dd\L	2F:dom
8dd-\	.
8cc\	.
8bn\J	.
=21	=21
8b-/L	1B-:dom
8f/	.
8g/	.
[8a-/J	.
2a-/]}	.
=22	=22
1r	1B-:dom
=23	=23
4r	1F:dom
8r	.
{16a/LL	.
16b-/JJ	.
8cc\L	.
16ff\L	.
16ee\J	.
8dd\	.
16a\L	.
16b-\JJ	.
=24	=24
8cc\	2F:dom
8r	.
16ee-\LL	.
16dd\	.
16cc\	.
16b-\JJ	.
16a/LL	2D:dom
16g/	.
16f#/	.
16g/JJ	.
4a/}	.
=25	=25
4r	1G:min
{16f#/LL	.
16g/	.
16b-/	.
16dd/JJ	.
16ff\LL	.
16dd\	.
16ee-\	.
16een\JJ	.
16cc\LL	.
16cc#\	.
16dd\	.
16ccn\JJ	.
=26	=26
16b-/LL	1C:dom
16a/	.
16g/	.
16f/JJ	.
16e/LL	.
16G/	.
16B-/	.
16d-/JJ	.
16c/LL	.
16B-/	.
16A/	.
16c/JJ	.
16e-/LL	.
16en/	.
16g/	.
16e/JJ	.
=27	=27
16f/LL	1F:dom
16g/	.
16a/	.
16b-/JJ	.
16cc\LL	.
16b-\	.
16a\	.
16cc\JJ	.
16g/LL	.
16a/	.
16b-/	.
16dd/JJ	.
16a-\LL	.
16bn\	.
16ee\	.
16dd\JJ	.
=28	=28
4cc\}	2G:min
4r	.
8r	2C:dom
{8a/	.
24b-\LL	.
24cc\	.
24b-\JJ	.
8a/	.
=29	=29
4f/	1F:dom
8r	.
[8c/	.
2c/_	.
=30||	=30||
8c/L]	1F:dom
16d/L	.
16e/J	.
8f/	.
8g/J	.
8a/L	.
8e/	.
8f/	.
8g/J	.
*>solo2
=31	=31	!!Chorus 2
4f/}	1F:dom
8r	.
{8B/	.
4.c/	.
8B-/	.
=32	=32
16A/LL	2C:min
16c/	.
16e-/	.
16g/J	.
8dd/	.
[8cc/J	.
2cc\]}	2F:dom
=33	=33
2r	1B-:dom
4r	.
8r	.
{24f/LL	.
24f/	.
24f/JJ	.
=34	=34
6r	1B-:dom
6b\	.
6b-\	.
24a-/LL	.
24b-/	.
24a-/JJ	.
8f/	.
12e-/L	.
12c/	.
12B-/J	.
=35	=35
8G#/L	1F:dom
8A/	.
8F/	.
8G#/J	.
2A/}	.
=36	=36
8r	2A:min
{16A/LL	.
16c/J	.
8e/	.
8g/J	.
8g-/L	2A-:min
8e-/	.
8B/	.
8A-/J	.
=37	=37
8F#/L	1G:min
8G/	.
8B-/	.
8d/J	.
8f/L	.
8d/	.
8e/	.
[8cc/J	.
=38	=38
8cc\]}	1C:dom
8r	.
8r	.
{8c/	.
8a-/L	.
16e/L	.
16c/J	.
8B-/	.
8c/J	.
=39	=39
4g/	1F:dom
4cc\	.
8r	.
8g/	.
[4a-/	.
=40	=40
4a-/]	2G:min
4cc\	.
8r	2C:dom
8c/	.
[4an/	.
=41	=41
4a/]	1F:dom
4cc\}	.
2r	.
==	==
*-	*-
